svg/Outline/exit.svg

<svg viewBox="0 0 24 24" xmlns="http://www.w3.org/2000/svg" width="24" height="24"><path d="M15.24 3.37c1.86 0 2.8 0 3.53.3a4 4 0 0 1 2.17 2.17c.3.73.3 1.66.3 3.53v6.5a6 6 0 0 1-.3 2.3l-.08.18a4 4 0 0 1-2.09 1.98l-.14.05c-.71.25-1.64.25-3.39.25s-2.68 0-3.39-.25l-.14-.05a4 4 0 0 1-2.09-1.98l-.08-.19a6 6 0 0 1-.3-2.3v-.32a.9.9 0 1 1 1.8 0q0 .7.03 1.16c.04.47.1.66.14.78l.1.2c.23.44.62.8 1.09.99l.1.03c.13.04.32.08.67.1.49.03 1.11.03 2.07.03s1.58 0 2.07-.03c.46-.03.66-.09.77-.13l.2-.1q.69-.37 1-1.1l.03-.1q.06-.16.1-.67c.03-.48.03-1.11.03-2.07V9.37c0-.96 0-1.59-.03-2.07a3 3 0 0 0-.1-.67l-.04-.1a2.2 2.2 0 0 0-1-1.1l-.19-.1a3 3 0 0 0-.77-.13c-.49-.03-1.11-.03-2.07-.03s-1.58 0-2.07.03c-.35.02-.54.06-.67.1l-.1.03q-.72.31-1.1 1l-.1.2c-.04.1-.1.3-.13.77-.02.32-.03.82-.03 1.4a.9.9 0 1 1-1.8 0c0-1.26.05-2.14.25-2.72l.05-.14a4 4 0 0 1 1.99-2.09l.18-.08c.73-.3 1.67-.3 3.53-.3"/><path d="M13.08 8.07a.9.9 0 0 1 1.2-.07l.07.07 3.3 3.3a.9.9 0 0 1 0 1.27l-3.3 3.3a.9.9 0 0 1-1.27-1.28l1.76-1.76H4.23a.9.9 0 0 1 0-1.8h10.6l-1.75-1.76-.07-.07a.9.9 0 0 1 .07-1.2"/></svg>

<svg viewBox="0 0 24 24" xmlns="http://www.w3.org/2000/svg" width="24" height="24"><path d="M15.24 3.37c1.86 0 2.8 0 3.53.3a4 4 0 0 1 2.17 2.17c.3.73.3 1.66.3 3.53v6.5a6 6 0 0 1-.3 2.3l-.08.18a4 4 0 0 1-2.09 1.98l-.14.05c-.71.25-1.64.25-3.39.25s-2.68 0-3.39-.25l-.14-.05a4 4 0 0 1-2.09-1.98l-.08-.19a6 6 0 0 1-.3-2.3v-.32a.9.9 0 1 1 1.8 0q0 .7.03 1.16c.04.47.1.66.14.78l.1.2c.23.44.62.8 1.09.99l.1.03c.13.04.32.08.67.1.49.03 1.11.03 2.07.03s1.58 0 2.07-.03c.46-.03.66-.09.77-.13l.2-.1q.69-.37 1-1.1l.03-.1q.06-.16.1-.67c.03-.48.03-1.11.03-2.07V9.37c0-.96 0-1.59-.03-2.07a3 3 0 0 0-.1-.67l-.04-.1a2.2 2.2 0 0 0-1-1.1l-.19-.1a3 3 0 0 0-.77-.13c-.49-.03-1.11-.03-2.07-.03s-1.58 0-2.07.03c-.35.02-.54.06-.67.1l-.1.03q-.72.31-1.1 1l-.1.2c-.04.1-.1.3-.13.77-.02.32-.03.82-.03 1.4a.9.9 0 1 1-1.8 0c0-1.26.05-2.14.25-2.72l.05-.14a4 4 0 0 1 1.99-2.09l.18-.08c.73-.3 1.67-.3 3.53-.3"/><path d="M13.08 8.07A.9 .9 0 0 1 14.28 8L17.65 11.37A.9 .9 0 0 1 17.65 12.64L14.35 15.94A.9 .9 0 0 1 13.08 14.66L14.84 12.9L4.23 12.9A.9 .9 0 0 1 4.23 11.1L14.83 11.1L13.01 9.27A.9 .9 0 0 1 13.08 8.07"/></svg>
